!!!OTL: WENN EINST DER ALTE KNOCHENHAUER
!!!ARE: Europa, Mitteleuropa, Deutschland
!!!SCT: F0518
!!!YEM: Copyright 1995, estate of Helmut Schaffrath.
**kern
*ICvox
*Ivox
*M4/4
*k[f#]
*G:
{4d
=1
4.g
8g
8a
8a
8a
8a
=2
4b
4g
8r}
{8b
8b
8b
=3
4a
8b
8g
4f#
4e
=4
2d
4r}
{4d
=5
4.g
8g
8a
8a
8a
8a
=6
4b
4g
8r}
{8b
8b
8b
=7
4a
8b
8g
4f#
4e
=8
2d
4.r}
{8dd
=9
4.dd
8b
4.ee
8dd
=10
8dd
8cc
8cc
2r}
{8cc
=11
4.cc
8a
4.dd
8cc
=12
8cc
8b
8b
2r}
{8dd
=13
4.dd
8dd
4.gg
8b
=14
8dd
8cc
8a
4r}
{8cc
8b
8a
=15
4dd
4g
4b
4a
=16
4g
2r}
==
!!!AGN: Studenten - Lied, Trink - Spruch
!!!ONB: ESAC (Essen Associative Code) Database: FINK
!!!AMT: simple quadruple
!!!AIN: vox
!!!EED: Helmut Schaffrath
!!!EEV: 1.0
*-
